X: 1216
T: Karcığar Aranağme (Ağıraksak)
C: ?
O: Turkey
F: http://compmusic.upf.edu/node/140
N: karcigar--aranagme--agiraksak--1--
N: makam= karcigar
N: form= aranagme
N: usul= agiraksak = 9/4
M: 9/4
L: 1/16
K: C _2/4B _3/4e ^3/4f 
Q: 1/4=66
%%MIDI tuningsystem comma53
baga g2c'2 b3c' a3b g3a f3g e3f d2ef edc2  | 
w:  ARANAĞME  | 
dcBc defg a_bag fedc c3B BcBA A4 defg a4  | 
w:   | 
baga g2c'2 b3c' a3b g3a f3g e3f d2ef edc2  | 
w:  ARANAĞME  | 
dcBc defg a_bag fedc c3B BcBA A8 z4  | 
w:   | 
|


